X:1
T:Madras, LMD
T:Madras, LMD
T:Charles Reeves
T:Public Domain Courtesy of the Cyber Hymnal™
C:Charles Reeves
Z:Public Domain
Z:Courtesy of the Cyber Hymnal™
%%score ( 1 2 ) ( 3 4 )
L:1/8
Q:1/4=100
M:4/4
K:C
V:1 treble 
V:2 treble 
V:3 bass 
V:4 bass 
V:1
 [EG]2 | E3 [DF] [EG]E[FA][FA] | (G2 c4) [Ec]2 | [FB]3 [FA] [DF]D[B,G][B,D] | [CE]6 [CE]2 | %5
 [B,F]3 [B,F] [CE][B,D][DG][^FA] | [GB]6 [GB]2 | [Gc]3 [GB] [EA]E[D^F][CA] | [B,G]6 [FG]2 | %9
 [Ge]3 [Fd] [Ec][CE][B,D][CE] | F6 [DF]2 | [Fd]3 [Fc] [FA][DF][CE][DF] | [EG]6 [EG]2 | %13
 [CE]3 [DF] [EG][CE][B,D]C | (A2 c4) [FA]2 | [FG]3 [FA] [FB][FG][Fe][Fd] | c6 z2 |] %17
V:2
 x2 | E3 E x4 | E6 x2 | x5 D x2 | x8 | x8 | x8 | x5 E x2 | x8 | x8 | (DCB,^A, B,2) x2 | x8 | x8 | %13
 x7 C | F6 x2 | x8 | (EFE^D E2) x2 |] %17
V:3
 [C,G,]2 | [C,G,]3 [B,,G,] [C,G,][C,G,][C,F,][C,A,] | (C2 G,4) [C,G,]2 | %3
 [G,,D]3 [A,,C] [B,,B,][B,,G,][G,,G,]G, | [C,G,]6 [C,G,]2 | [G,,G,]3 [G,,G,] G,[F,G,][E,G,][D,D] | %6
 [G,D]6 [G,D]2 | [G,E]3 [G,D] [C,C][A,,C][D,A,][D,F,] | [G,,G,]6 [D,B,]2 | %9
 [C,C]3 [D,B,] [E,G,]G,[D,F,][C,G,] | [G,,G,]6 [B,,G,]2 | %11
 [G,,B,]3 [A,,G,] [G,,G,][B,,G,][E,G,][D,G,] | (G,CB,A, G,2) [C,G,]2 | %13
 [C,G,]3 [B,,G,] [C,G,][C,G,][D,G,][E,G,] | (C2 A,4) [F,C]2 | %15
 [G,B,]3 [G,C] [G,D][G,B,][G,A,][G,B,] | (DA,G,^F, G,2) z2 |] %17
V:4
 x2 | x8 | C,6 x2 | x7 (F,/D,/) | x8 | x4 G, x3 | x8 | x8 | x8 | x5 G, x2 | x8 | x8 | C,6 x2 | x8 | %14
 F,6 x2 | x8 | C,6 x2 |] %17

